X:1
T:Pass of Ballater, The
T:Pass of Ballater, The
T:Alexander Walker
C:Alexander Walker
L:1/8
M:4/4
K:Cmin
V:1 treble 
V:1
 E | C>DE>F G>B c>d | e>cd>A (B/c/)B/F/ D>B, | C>DE>F G>Bc>d | e>c e/d/c/B/ c<C C :| e | %6
 (g>c)(e>c) c'>c e2 | (f>B)(d>B) (b>B) d2 | (g>c)(e>c) (c'>c)(g>a) | b>gf>d c/c/c c>e | %10
 g>ce>c c'>ce>g | b>gf>e d<BB>d | c>ed>f e>gf>b | g>ef>d c/c/c c2 || %14

